X:1
T:Ch'io ma non t'ami
T:Ch'io ma non t'ami
T:Giovanni Ghizzolo
C:Giovanni Ghizzolo
%%score 1 { 2 | 3 }
L:1/8
Q:1/4=120
M:4/4
K:F
V:1 treble nm="Soprano" snm="S"
V:2 treble nm="MusicXML Part"
V:3 bass 
V:1
"^Source: Madrigali et Arie---Libro secondo---Venetia---A.Raverij---1609.\nEditor: André Vierendeels (13/05/07)\nContinuo: André Vierendeels" z2 GG G2"^Ch'io non t'ami" GB"^MADRIGALE" | %1
w: Ch'io non t'a- mi cor|
 G8 | A4 z dAA | AB c3 AGF | G4 G4 | z2 Bc d2 ^FG | AAEE F2 GA | B3 B B2 A2 | A8 | G4 z2 d2- | %10
w: mi-|o- ch'io non sia|la tua vi- ta'e tu la|mi- a|che per no- vo de-|si- o e per no- va spe-|ran- za'i t'a- ban-|do-|ni pri-|
 d2 cc c3 =B | c4 c4 | d6 ef | ^c2 d2 e4 | d4 z2 dA/A/ | B3 G A2 A2 | z2 c4 BA | GGBc d4- | %18
w: * ma che ques- to|si- a|mot- te non|mi per- do-|ni chi se- tu|sei quel co- re|on- de la|vi- ta- m'e si dol-|
 d2 dc c4 | c4 d3 e | f4 AABG | A2 B4 BB | c4 c2 AA | B2 Bc d4- | d2 G2 G4- | G4 A4 | E8 | %27
w: * c'e gra- di-|ta for- *|* te d'o- gni mio|ben d'o- gni de-|si- re co- me|pos- so las- ciar|_ ti'e non|_ mo-|ri|
 D4 z2 EE | F2 FG A4- | A2 A2 c4- | c4 d4 | A8 | G4 z2 d2- | d2 cc c2 =B2 | c4 c4 | d6 ef | %36
w: re co- me|pos- so las- ciar|_ ti'e non|_ mo-|rir-|e pri-|* ma che ques- to|si- a|mo- te non|
 ^c2 d2 e4 | d4 z dAA | B3 G A2 A2 | z2 c4 BA | GGBc d4- | d2 dc c4 | c4 d3 e | f4 AABG | %44
w: mi per- do-|ni che se tu|sei quel co- re|on- de la|vi- ta m'e si ca-|* ra'e gra- di-|ta fon- *|* te 'o- gni mio|
 A2 B4 BB | c4 c2 AA | B2 Bc d4- | d2 G2 G4- | G4 A4 | E8 | D4 z2 EE | F2 FG A4- | A2 A2 c4- | %53
w: ben d'o- gni de-|si- re co- me|pos- so las- ciar|_ ti'e non|_ mo-|ri-|re co- me|pos- so las- ciar|_ ti'e non|
 c4 d4 | A8 | G8 |] %56
w: _ mo-|ri-|ri.|
V:2
 [DGB]8 | [GB]8 | [Fd]8 | [FAc]8 | [EGc]8 | [DB]4 [DA]4 | [EA]4 [FA]4 | [DGB]8 | [Ad]4 [D^FA]4 | %9
 [DG=B]4 [CG]4 | G4 [Ad]2 [Gd]2 | [EGc]8 | [DGB]4 [DA]2 [DG]2 | [EA]4 [EA^c]4 | [^FAd]8 | %15
 [DGB]4 [Ac]4 | [EGc]2 [FA]4 [DG]2 | [EG]2 [DG]4 [EG]2 | [DF]2 [FB]2 [Ac]4 | [FA]4 [FB]4 | %20
 [FBd]4 [Ad]2 [GB]2 | F2 G6 | [FA]8 | [DFB]6 [GB]2 | [_EG]4 [DG]4 | [Gd]4 [Fd]4 | ^cded c=B c2 | %27
 [^FAd]4 [Gc]4 | [F-Ac-]8 | [FAc]4 [Gc]4 | [FA]4 [GB]4 | ^FGAG FE F2 | [DG=B]4 [D_B]4 | %33
 [FB]2 G2 A2 [DG]2 | [EG]8 | [GB]8 | E4 [EA^c]4 | [^FA]8 | [DG]4 [CFA]4 | [EG]2 [FA]4 [DF]2 | %40
 [EG]2 [DG]4 [EG]2 | A2 G2 [FA]4- | [FA]4 [FB]4 | [Fd]4 [DA]2 [GB]2 | F4 G4 | [Ac]4 [FA]4 | %46
 [DF]6 [DG]2 | [_EG]4 [DG]4 | [Ec]4 [Fd]4 | [A^c]8 | [FA]4 [Gc]4 | [F-Ac-]8 | [FAc]4 [Gc]4 | %53
 ^F4 [GB]4 | [Gd]4 [^Fd]4 | [DG=B]8 |] %56
V:3
 G,8 | _E,8 | D,8 | F,4 F,,4 | C,8 | G,4 D,4 | ^C,4 D,4 | G,,8 | D,4 D,,4 | G,,4 G,4 | %10
 E,4 ^F,2 G,2 | C,4 C,4 | G,2 A,B, ^F,2 G,2 | A,4 A,,4 | D,8 | G,,4 F,,4 | C,2 F,,2 A,,2 B,,2 | %17
 C,2 G,,2 B,,2 C,2 | D,2 B,,2 F,4 | F,,4 B,,4 | B,4 ^F,F,G,_E, | D,4 _E,2 D,2 | F,4 F,,4 | %23
 B,,4 B,,2 G,,2 | C,4"^6" =B,,4 |"^7" A,,4"^6" A,,4 | A,,8 | D,4 C,4 | F,,8 | F,4"^6" E,4 | %30
"^7" D,4"^6" D,4 |"^#" D,8 | G,,4 G,4 |"^6" D,4 ^F,2 G,2 | C,4 C,4 | G,2 A,B, ^F,2 G,2 | %36
 A,4"^#" A,,4 | D,8 | G,,4 F,,4 | C,2 F,,2 A,,2 B,,2 | C,2 G,,2 B,,2 C,2 | D,2 B,,2 F,4 | %42
 F,,4 B,,4 | B,4 ^F,F,G,_E, | D,4 _E,2"^6" D,2 | F,4 F,,4 | B,,6 G,,2 | C,4"^6" =B,,4 | %48
"^7" A,,4"^6" A,,4 |"^#" A,,8 | %50
 D,4"^Notes: original keys: Ut 1st, Fa 4rth\n           dedication:  Al molto ill. et molto Rever. Sig. Conte Ottavio Tornielli\n                             Canonico della Cathedrale di Novara." C,4 | %51
 F,4 F,,4 | F,4"^6" E,4 |"^7" D,4"^6" D,4- |"^#" D,8 | G,,8 |] %56

